X: 2
T: Christmas
Z: Nigel Gatherer
S: https://thesession.org/tunes/13244#setting23103
R: barndance
M: 4/4
L: 1/8
K: Gmaj
D/E/F |G2 DG ADGA | BcBA G2 AB | c2 BA BDGB | ADFA d2 c2 |
B2 GD B,C D2 | EFGE c2 dc | B2 AG D2 F2 | G6 :|
Bc |d2 BG Dded | c2 AF Dcdc | B2 G2 cBAG | FAEA D2 D/E/F |
G2 DG ADAB | cBAG d3 c | B2 AG D2 F2 | G6 :|
